assets/img/discretionary-cover.svg

<svg xmlns="http://www.w3.org/2000/svg" width="540" height="137" viewBox="0 0 540 137">
  <g fill="none" fill-rule="evenodd">
    <polygon fill="#9CF3C5" points="175.61 136.663 364.171 136.663 364.171 120.266 175.61 120.298"/>
    <polygon fill="#B3F2D1" points="175.63 136.668 0 75.26 0 60.208 175.63 120.321"/>
    <path fill="#616161" d="M188.509338,60.2078365 L364.139155,120.321441 L188.509338,60.2078365 Z"/>
    <polygon fill="#60D3A2" points="364.139 136.667 539.769 74.74 539.769 60.208 364.139 120.321"/>
    <path fill="#242933" d="M175.637007,0.0966927711 L364.131966,0.0966927711 L539.768973,60.2078365 L364.143604,120.319918 L175.629818,120.328253 L0,60.2078365 L175.629818,0.0942319769 Z"/>
    <polygon fill="#60D3A2" points="306 33.584 322.313 28.033 322.313 16.838 306 22.39"/>
    <polygon fill="#9CF3C5" points="306 33.584 267.188 20.375 267.188 9.18 306 22.39"/>
    <polygon fill="#20252E" points="283.5 3.628 267.188 9.18 306 22.39 322.313 16.838"/>
    <polygon fill="#60D3A2" points="376.875 76.125 393.188 70.573 393.188 59.378 376.875 64.93"/>
    <polygon fill="#9CF3C5" points="376.875 76.125 254.25 34.39 254.25 23.195 376.875 64.93"/>
    <polygon fill="#20252E" points="270.563 17.644 254.25 23.195 376.875 64.93 393.188 59.378"/>
    <polygon fill="#60D3A2" points="352.125 86.2 368.438 80.648 368.438 69.454 352.125 75.005"/>
    <polygon fill="#9CF3C5" points="352.125 86.2 218.25 40.637 218.25 29.442 352.125 75.005"/>
    <polygon fill="#20252E" points="234.563 23.89 218.25 29.442 352.125 75.005 368.438 69.454"/>
    <polygon fill="#60D3A2" points="340.875 100.753 357.188 95.202 357.188 84.007 340.875 89.559"/>
    <polygon fill="#9CF3C5" points="340.875 100.753 218.25 59.019 218.25 47.824 340.875 89.559"/>
    <polygon fill="#20252E" points="234.563 42.272 218.25 47.824 340.875 89.559 357.188 84.007"/>
    <polygon fill="#60D3A2" points="300.375 105.231 316.688 99.68 316.688 88.485 300.375 94.037"/>
    <polygon fill="#9CF3C5" points="300.375 105.231 147.375 53.159 147.375 41.964 300.375 94.037"/>
    <polygon fill="#20252E" points="163.688 36.412 147.375 41.964 300.375 94.037 316.688 88.485"/>
    <polygon fill="#60D3A2" points="130.5 71.647 146.813 66.095 146.813 54.9 130.5 60.452"/>
    <polygon fill="#9CF3C5" points="130.5 71.647 119.25 67.818 119.25 56.623 130.5 60.452"/>
    <polygon fill="#20252E" points="135.563 51.071 119.25 56.623 130.5 60.452 146.813 54.9"/>
  </g>
</svg>

<?xml version="1.0" encoding="UTF-8" standalone="no"?>
<svg width="540" xmlns="http://www.w3.org/2000/svg" viewBox="0 0 540 137" height="137">
 <g fill-rule="evenodd">
  <polygon points="175.61 136.66 364.17 136.66 364.17 120.27 175.61 120.3" fill="#9CF3C5"/>
  <polygon points="175.63 136.67 0 75.26 0 60.208 175.63 120.32" fill="#B3F2D1"/>
  <path d="m188.51 60.208l175.63 60.112-175.63-60.112z" fill="#616161"/>
  <polygon points="364.14 136.67 539.77 74.74 539.77 60.208 364.14 120.32" fill="#60D3A2"/>
  <path d="m175.64 0.096693h188.49l175.64 60.111-175.63 60.112-188.51 0.01-175.63-60.122 175.63-60.114z" fill="#242933"/>
  <polygon points="306 33.584 322.31 28.033 322.31 16.838 306 22.39" fill="#60D3A2"/>
  <polygon points="306 33.584 267.19 20.375 267.19 9.18 306 22.39" fill="#9CF3C5"/>
  <polygon points="283.5 3.628 267.19 9.18 306 22.39 322.31 16.838" fill="#20252E"/>
  <polygon points="376.88 76.125 393.19 70.573 393.19 59.378 376.88 64.93" fill="#60D3A2"/>
  <polygon points="376.88 76.125 254.25 34.39 254.25 23.195 376.88 64.93" fill="#9CF3C5"/>
  <polygon points="270.56 17.644 254.25 23.195 376.88 64.93 393.19 59.378" fill="#20252E"/>
  <polygon points="352.12 86.2 368.44 80.648 368.44 69.454 352.12 75.005" fill="#60D3A2"/>
  <polygon points="352.12 86.2 218.25 40.637 218.25 29.442 352.12 75.005" fill="#9CF3C5"/>
  <polygon points="234.56 23.89 218.25 29.442 352.12 75.005 368.44 69.454" fill="#20252E"/>
  <polygon points="340.88 100.75 357.19 95.202 357.19 84.007 340.88 89.559" fill="#60D3A2"/>
  <polygon points="340.88 100.75 218.25 59.019 218.25 47.824 340.88 89.559" fill="#9CF3C5"/>
  <polygon points="234.56 42.272 218.25 47.824 340.88 89.559 357.19 84.007" fill="#20252E"/>
  <polygon points="300.38 105.23 316.69 99.68 316.69 88.485 300.38 94.037" fill="#60D3A2"/>
  <polygon points="300.38 105.23 147.38 53.159 147.38 41.964 300.38 94.037" fill="#9CF3C5"/>
  <polygon points="163.69 36.412 147.38 41.964 300.38 94.037 316.69 88.485" fill="#20252E"/>
  <polygon points="130.5 71.647 146.81 66.095 146.81 54.9 130.5 60.452" fill="#60D3A2"/>
  <polygon points="130.5 71.647 119.25 67.818 119.25 56.623 130.5 60.452" fill="#9CF3C5"/>
  <polygon points="135.56 51.071 119.25 56.623 130.5 60.452 146.81 54.9" fill="#20252E"/>
 </g>
</svg>
